X: 20160
T: Joanie's On The Move
R: reel
M: 4/4
K: Gmajor
|:"G"DGGE "Dm"=F2 DC|"G"DGGE "Dm"=FDC2|"G"DGGE "Dm"=F3E|"D"D2 CA, "G"B,G,G,2|
"G"DGGE "Dm"=F2 DC|"G"DGGE "Dm"=FDC2|"G"B2AG "Dm"=FADE|"Dm"=FDCA, "G"G,4:|
|:"G"DGG=F DGGA|"G"B2"D"cA "G"Bd"D"cA|"G"DGG=F DGG2|"D"dc"Am"AG "Dm"=FDCE|
"G"DGG=F DGGA|"G"B2"D"cA "Dm"G=FD2|"G"G,A,B,C "Dm"DE=FA|"Dm"G=FDC "G"B,G, G,2:|

